src/img/img_login-active.svg

<svg width="19" height="21" viewBox="0 0 26 26" fill="none" xmlns="http://www.w3.org/2000/svg">
<path d="M9.68359 10.5C12.418 10.5 14.6836 8.27344 14.6836 5.5C14.6836 2.76562 12.418 0.5 9.68359 0.5C6.91016 0.5 4.68359 2.76562 4.68359 5.5C4.68359 8.27344 6.91016 10.5 9.68359 10.5ZM13.1602 11.75H12.4961C11.6367 12.1797 10.6992 12.375 9.68359 12.375C8.66797 12.375 7.69141 12.1797 6.83203 11.75H6.16797C3.27734 11.75 0.933594 14.1328 0.933594 17.0234V18.625C0.933594 19.6797 1.75391 20.5 2.80859 20.5H16.5586C17.5742 20.5 18.4336 19.6797 18.4336 18.625V17.0234C18.4336 14.1328 16.0508 11.75 13.1602 11.75Z" fill="#2AA7FF"/>
</svg>

<svg width="19" height="21" viewBox="0 0 26 26" fill="none" xmlns="http://www.w3.org/2000/svg"><path d="M9.68 10.5a5.01 5.01 0 000-10 5.01 5.01 0 000 10zm3.48 1.25h-.66a6.2 6.2 0 01-2.82.63c-1.01 0-1.99-.2-2.85-.63h-.66a5.27 5.27 0 00-5.24 5.27v1.6c0 1.06.82 1.88 1.88 1.88h13.75c1.01 0 1.87-.82 1.87-1.88v-1.6a5.3 5.3 0 00-5.27-5.27z" fill="#2AA7FF"/></svg>
